Papirus-nordic/32x32/places/folder-nordic-projects.svg

<svg xmlns="http://www.w3.org/2000/svg" width="32" height="32" version="1"><rect width="25" height="16" x="3" y="12" rx="1.25" ry="1.25" opacity=".2"/><path d="M3 21.75c0 .692.557 1.25 1.25 1.25h22.5c.692 0 1.25-.558 1.25-1.25V8.25C28 7.557 27.442 7 26.75 7H14v-.75C14 5.557 13.443 5 12.75 5h-8.5C3.557 5 3 5.557 3 6.25" fill="#6c9b9a"/><rect width="25" height="16" x="3" y="10" rx="1.25" ry="1.25" opacity=".2"/><rect width="21" height="10" x="5" y="9" rx="1.25" ry="1.25" fill="#e4e4e4"/><rect width="25" height="16" x="3" y="11" rx="1.25" ry="1.25" fill="#82abaa"/><path d="M4.25 5C3.557 5 3 5.557 3 6.25v1C3 6.557 3.557 6 4.25 6h8.5c.693 0 1.25.557 1.25 1.25V8h12.75c.692 0 1.25.557 1.25 1.25v-1C28 7.557 27.442 7 26.75 7H14v-.75C14 5.557 13.443 5 12.75 5h-8.5z" opacity=".1" fill="#fff"/><path d="M17 14a2.148 2.148 0 0 0-.625.337c-.863.694-.219 1.951.625 2.663v2c.631.437.777.58 1.15 1 .19.214.719.756.85 1v-4c.862-.7 1.462-1.906.625-2.625A2.449 2.449 0 0 0 19 14v1.406c0 .288-.399.575-.789.575h-.427c-.35 0-.784-.287-.784-.575zm-2 5c-2.5 0-4 2.125-4 4l-.844.005c-.156.001-.156.156-.156.156l-.004.683c0 .156.157.156.157.156h9.712s.161 0 .156-.156L20 23.165s0-.155-.156-.156L19.009 23c0-1.875-1.509-4-4.009-4zm0 2c2 0 2 1.225 2 2h-4c0-.75 0-2 2-2z" fill="#4e6766"/></svg>

<svg xmlns="http://www.w3.org/2000/svg" width="32" height="32" version="1">
 <rect style="opacity:0.2" width="25" height="16" x="3" y="12" rx="1.25" ry="1.25"/>
 <path style="fill:#6c9b9a" d="m3 21.75c0 0.692 0.5575 1.25 1.25 1.25h22.5c0.692 0 1.25-0.558 1.25-1.25v-13.5c0-0.6925-0.558-1.25-1.25-1.25h-12.75v-0.75c0-0.6925-0.557-1.25-1.25-1.25h-8.5c-0.6925 0-1.25 0.5575-1.25 1.25"/>
 <rect style="opacity:0.2" width="25" height="16" x="3" y="10" rx="1.25" ry="1.25"/>
 <rect style="fill:#e4e4e4" width="21" height="10" x="5" y="9" rx="1.25" ry="1.25"/>
 <rect style="fill:#82abaa" width="25" height="16" x="3" y="11" rx="1.25" ry="1.25"/>
 <path style="opacity:0.1;fill:#ffffff" d="m4.25 5c-0.6925 0-1.25 0.5575-1.25 1.25v1c0-0.6925 0.5575-1.25 1.25-1.25h8.5c0.693 0 1.25 0.5575 1.25 1.25v0.75h12.75c0.692 0 1.25 0.5575 1.25 1.25v-1c0-0.6925-0.558-1.25-1.25-1.25h-12.75v-0.75c0-0.6925-0.557-1.25-1.25-1.25h-8.5z"/>
 <path style="fill:#4e6766" d="M 17,14 C 16.781,14.081 16.556,14.187 16.375,14.337 15.512,15.031 16.156,16.288 17,17 V 19 C 17.631,19.437 17.777,19.58 18.15,20 18.34,20.214 18.869,20.756 19,21 V 17 C 19.862,16.3 20.462,15.094 19.625,14.375 19.444,14.225 19.219,14.088 19,14 V 15.406 C 19,15.694 18.601,15.981 18.211,15.981 H 17.784 C 17.434,15.981 17,15.694 17,15.406 Z M 15,19 C 12.5,19 11,21.125 11,23 L 10.156,23.005 C 10,23.006 10,23.161 10,23.161 L 9.9963,23.844 C 9.9954,24 10.153,24 10.153,24 H 19.865 C 19.865,24 20.026,24 20.021,23.844 L 20,23.165 C 20,23.165 20,23.01 19.844,23.009 L 19.009,23 C 19.009,21.125 17.5,19 15,19 Z M 15,21 C 17,21 17,22.225 17,23 H 13 C 13,22.25 13,21 15,21 Z"/>
</svg>
